wp-content/themes/techtotem/img/icons/map-water.svg

<?xml version="1.0" encoding="UTF-8"?>
<svg width="30px" height="30px" viewBox="0 0 30 30" version="1.1" xmlns="http://www.w3.org/2000/svg" xmlns:xlink="http://www.w3.org/1999/xlink">
    <!-- Generator: Sketch 50.2 (55047) - http://www.bohemiancoding.com/sketch -->
    <title>Group 2</title>
    <desc>Created with Sketch.</desc>
    <defs>
        <polygon id="path-1" points="0 0 29.9997273 0 29.9997273 29.9990455 0 29.9990455"></polygon>
    </defs>
    <g id="Symbols" stroke="none" stroke-width="1" fill="none" fill-rule="evenodd">
        <g id="Icons/Map/Waterfountain">
            <g id="Group-2">
                <mask id="mask-2" fill="white">
                    <use xlink:href="#path-1"></use>
                </mask>
                <g id="Clip-2"></g>
                <path d="M22.6718182,8.69318182 C23.04,8.69318182 23.3427273,8.99590909 23.3427273,9.36545455 L23.3427273,13.6118182 C23.3427273,13.98 23.04,14.2840909 22.6718182,14.2840909 L12.7022727,14.2840909 C12.5713636,14.2840909 12.4854545,14.3931818 12.4854545,14.5009091 L12.4854545,16.9718182 C12.4854545,17.34 12.1827273,17.6440909 11.8131818,17.6440909 L7.32681818,17.6440909 C6.95863636,17.6440909 6.65590909,17.34 6.65590909,16.9718182 L6.65590909,11.5963636 C6.65590909,9.99272727 7.95545455,8.69318182 9.55909091,8.69318182 L17.2977273,8.69318182 L17.2977273,6.33136364 L13.2654545,6.33136364 C12.8754545,6.33136364 12.5713636,6.02727273 12.5931818,5.63727273 C12.615,5.26909091 12.9190909,4.98681818 13.2872727,4.98681818 L22.6718182,4.98681818 C23.0604545,4.98681818 23.3645455,5.28954545 23.3427273,5.68090909 C23.3427273,6.04909091 23.0181818,6.33136364 22.6486364,6.33136364 L18.6395455,6.33136364 L18.6395455,8.69318182 L22.6718182,8.69318182 Z M9.55909091,26.6590909 C8.325,26.6590909 7.305,25.6404545 7.305,24.405 C7.305,23.43 8.60590909,21.0463636 8.99590909,20.3318182 L9.16909091,20.0277273 C9.34363636,19.7236364 9.77590909,19.7236364 9.94909091,20.0277273 L10.1222727,20.3318182 C10.5354545,21.0463636 11.8131818,23.43 11.8131818,24.405 C11.8131818,25.6404545 10.7945455,26.6590909 9.55909091,26.6590909 Z M15,0 C6.71590909,0 0,6.71454545 0,15 C0,23.2840909 6.71590909,30 15,30 C23.2840909,30 30,23.2840909 30,15 C30,6.71454545 23.2840909,0 15,0 Z" id="Fill-1" fill="#B8DAEC" mask="url(#mask-2)"></path>
            </g>
        </g>
    </g>
</svg>

<svg width="30" height="30" viewBox="0 0 30 30" xmlns="http://www.w3.org/2000/svg" xmlns:xlink="http://www.w3.org/1999/xlink"><title>Group 2</title><defs><path id="a" d="M0 0h30v29.999H0z"/></defs><g fill="none" fill-rule="evenodd"><mask id="b" fill="#fff"><use xlink:href="#a"/></mask><path d="M22.672 8.693c.368 0 .67.303.67.672v4.247a.675.675 0 0 1-.67.672h-9.97c-.13 0-.217.11-.217.217v2.47a.675.675 0 0 1-.672.673H7.327a.675.675 0 0 1-.671-.672v-5.376c0-1.603 1.3-2.903 2.903-2.903h7.739V6.331h-4.033a.655.655 0 0 1-.672-.694.691.691 0 0 1 .694-.65h9.385c.388 0 .693.303.67.694 0 .368-.324.65-.693.65h-4.01v2.362h4.033zM9.559 26.66a2.267 2.267 0 0 1-2.254-2.254c0-.975 1.3-3.359 1.69-4.073l.174-.304a.447.447 0 0 1 .78 0l.173.304c.413.714 1.691 3.098 1.691 4.073a2.266 2.266 0 0 1-2.254 2.254zM15 0C6.716 0 0 6.715 0 15c0 8.284 6.716 15 15 15 8.284 0 15-6.716 15-15 0-8.285-6.716-15-15-15z" fill="#0096c8" mask="url(#b)"/></g></svg>
